;FLAVOR:UltiGCode
;TIME:5048
;MATERIAL:10263
;MATERIAL2:0
;NOZZLE_DIAMETER:0.4
;MINX:74.084
;MINY:89.74
;MINZ:0.27
;MAXX:148.909
;MAXY:133.26
;MAXZ:18.87
;Generated with Cura_SteamEngine 5.2.2
M82 ;absolute extrusion mode
G0 F3000 Y50 ;avoid prime blob
G92 E0
G92 E0
G10
;LAYER_COUNT:125
;LAYER:0
M107
G0 F9000 X135.388 Y91.562 Z0.27
;TYPE:SKIRT
G11
G1 F1800 X135.73 Y91.112 E0.06104
G1 X136.132 Y90.714 E0.12214
G1 X136.586 Y90.377 E0.1832
G1 X137.083 Y90.108 E0.24424
G1 X137.613 Y89.911 E0.3053
G1 X138.166 Y89.791 E0.36642
G1 X138.749 Y89.741 E0.42961
G1 X140.169 Y89.74 E0.58297
G1 X140.867 Y89.75 E0.65836
G1 X141.431 Y89.798 E0.71949
G1 X141.981 Y89.925 E0.78046
G1 X142.509 Y90.129 E0.84159
G1 X143.003 Y90.404 E0.90265
G1 X143.452 Y90.747 E0.96367
G1 X143.849 Y91.149 E1.02469
G1 X144.186 Y91.604 E1.08584
G1 X144.454 Y92.101 E1.14683
G1 X144.65 Y92.631 E1.20785
G1 X144.77 Y93.184 E1.26897
G1 X144.819 Y93.766 E1.33205
G1 X144.82 Y99.793 E1.98296
G1 X144.807 Y100.671 E2.0778
G1 X144.675 Y102.004 E2.22247
G1 X144.44 Y104.767 E2.52195
G1 X144.286 Y107.503 E2.8179
G1 X144.21 Y110.176 E3.1067
G1 X144.21 Y112.921 E3.40316
G1 X144.286 Y115.591 E3.69164
G1 X144.441 Y118.329 E3.98782
G1 X144.673 Y121.054 E4.28318
G1 X144.807 Y122.318 E4.42046
G1 X144.812 Y123.196 E4.51528
G1 X144.777 Y126.99 E4.92505
G1 X144.773 Y128.625 E5.10163
G1 X144.764 Y129.303 E5.17487
G1 X144.716 Y129.866 E5.23589
G1 X144.59 Y130.417 E5.29693
G1 X144.387 Y130.945 E5.35803
G1 X144.112 Y131.439 E5.41909
G1 X143.77 Y131.889 E5.48013
G1 X143.368 Y132.287 E5.54123
G1 X142.914 Y132.623 E5.60223
G1 X142.417 Y132.893 E5.66331
G1 X141.887 Y133.089 E5.72434
G1 X141.334 Y133.209 E5.78545
G1 X140.753 Y133.26 E5.84844
G1 X139.43 Y133.26 E5.99133
G1 X138.732 Y133.251 E6.06672
G1 X138.169 Y133.203 E6.12774
G1 X137.618 Y133.077 E6.18879
G1 X137.09 Y132.875 E6.24984
G1 X136.596 Y132.6 E6.3109
G1 X136.146 Y132.258 E6.37195
G1 X135.748 Y131.856 E6.43304
G1 X135.412 Y131.402 E6.49404
G1 X135.142 Y130.905 E6.55513
G1 X134.945 Y130.375 E6.61619
G1 X134.825 Y129.823 E6.6772
G1 X134.777 Y129.255 E6.73876
G1 X134.769 Y126.694 E7.01535
G1 X134.736 Y123.249 E7.38743
G1 X134.74 Y122.376 E7.48171
G1 X134.819 Y121.479 E7.57897
G1 X134.97 Y120.024 E7.73695
G1 X135.171 Y117.332 E8.02849
G1 X135.299 Y114.585 E8.32549
G1 X135.349 Y111.912 E8.61423
G1 X135.321 Y109.17 E8.91038
G1 X135.218 Y106.464 E9.20284
G1 X135.038 Y103.766 E9.49487
G1 X134.755 Y100.87 E9.80913
G1 X134.729 Y100.119 E9.89028
G1 X134.728 Y94.393 E10.50869
G1 X134.737 Y93.698 E10.58376
G1 X134.785 Y93.135 E10.64478
G1 X134.911 Y92.584 E10.70583
G1 X135.113 Y92.056 E10.76688
G1 X135.388 Y91.562 E10.82794
G0 F9000 X135.785 Y91.69
G1 F1800 X136.124 Y91.274 E10.8859
G1 X136.521 Y90.913 E10.94385
G1 X136.967 Y90.615 E11.00178
G1 X137.452 Y90.387 E11.05966
G1 X137.966 Y90.234 E11.11758
G1 X138.725 Y90.141 E11.20017
G1 X140.164 Y90.14 E11.35558
G1 X140.862 Y90.15 E11.43097
G1 X141.396 Y90.198 E11.48887
G1 X141.917 Y90.324 E11.54676
G1 X142.414 Y90.527 E11.60475
G1 X142.875 Y90.801 E11.66266
G1 X143.29 Y91.14 E11.72054
G1 X143.65 Y91.538 E11.7785
G1 X143.947 Y91.984 E11.83637
G1 X144.175 Y92.47 E11.89434
G1 X144.327 Y92.984 E11.95223
G1 X144.418 Y93.72 E12.03232
G1 X144.42 Y99.787 E12.68756
G1 X144.407 Y100.65 E12.78078
G1 X144.276 Y101.97 E12.92404
G1 X144.04 Y104.746 E13.22493
G1 X143.888 Y107.432 E13.51548
G1 X143.81 Y110.201 E13.81465
G1 X143.81 Y112.896 E14.10571
G1 X143.888 Y115.659 E14.40423
G1 X144.041 Y118.352 E14.69554
G1 X144.273 Y121.08 E14.99123
G1 X144.407 Y122.341 E15.12819
G1 X144.412 Y123.192 E15.2201
G1 X144.377 Y126.986 E15.62987
G1 X144.373 Y128.62 E15.80634
G1 X144.364 Y129.298 E15.87957
G1 X144.317 Y129.832 E15.93746
G1 X144.191 Y130.353 E15.99535
G1 X143.989 Y130.85 E16.05329
G1 X143.715 Y131.311 E16.11121
G1 X143.376 Y131.727 E16.16917
G1 X142.979 Y132.088 E16.22712
G1 X142.533 Y132.385 E16.28499
G1 X142.048 Y132.613 E16.34287
G1 X141.534 Y132.767 E16.40082
G1 X140.781 Y132.86 E16.48276
G1 X139.436 Y132.86 E16.62802
G1 X138.738 Y132.851 E16.70341
G1 X138.203 Y132.804 E16.76141
G1 X137.682 Y132.678 E16.8193
G1 X137.185 Y132.476 E16.87725
G1 X136.724 Y132.203 E16.93511
G1 X136.308 Y131.864 E16.99306
G1 X135.947 Y131.468 E17.05094
G1 X135.649 Y131.022 E17.10887
G1 X135.421 Y130.536 E17.16684
G1 X135.268 Y130.022 E17.22476
G1 X135.176 Y129.268 E17.3068
G1 X135.169 Y126.693 E17.5849
G1 X135.136 Y123.251 E17.95665
G1 X135.14 Y122.388 E18.04986
G1 X135.217 Y121.52 E18.14397
G1 X135.368 Y120.062 E18.30228
G1 X135.572 Y117.342 E18.59686
G1 X135.699 Y114.611 E18.89213
G1 X135.749 Y111.912 E19.18367
G1 X135.721 Y109.149 E19.48209
G1 X135.618 Y106.457 E19.77304
G1 X135.437 Y103.733 E20.06788
G1 X135.193 Y101.232 E20.33927
G1 X135.13 Y100.421 E20.42712
G1 X135.128 Y94.398 E21.07761
G1 X135.137 Y93.703 E21.15267
G1 X135.184 Y93.169 E21.21057
G1 X135.31 Y92.648 E21.26846
G1 X135.512 Y92.151 E21.3264
G1 X135.785 Y91.69 E21.38426
G0 F9000 X135.91 Y92.251
G1 F1800 X136.516 Y91.446 E21.49308
G1 X136.907 Y91.125 E21.54772
G1 X137.814 Y90.686 E21.65654
G1 X138.488 Y90.54 E21.73102
G1 X140.158 Y90.54 E21.91138
G1 X141.195 Y90.555 E22.02339
G1 X141.849 Y90.723 E22.09632
G1 X142.313 Y90.925 E22.15097
G1 X143.117 Y91.532 E22.25977
G1 X143.437 Y91.923 E22.31434
G1 X143.875 Y92.831 E22.42322
G1 X144.018 Y93.769 E22.52569
G1 X144.02 Y99.781 E23.17499
G1 X144.007 Y100.629 E23.26658
G1 X143.873 Y101.981 E23.41331
G1 X143.642 Y104.692 E23.70716
G1 X143.488 Y107.435 E24.00387
G1 X143.41 Y110.19 E24.30153
G1 X143.41 Y112.907 E24.59497
G1 X143.488 Y115.659 E24.8923
G1 X143.644 Y118.408 E25.18967
G1 X143.872 Y121.093 E25.4807
G1 X144.007 Y122.366 E25.61895
G1 X144.012 Y123.189 E25.70784
G1 X143.977 Y126.983 E26.11761
G1 X143.973 Y128.614 E26.29375
G1 X143.96 Y129.629 E26.40338
G1 X143.792 Y130.286 E26.47662
G1 X143.591 Y130.75 E26.53123
G1 X142.984 Y131.555 E26.64012
G1 X142.157 Y132.131 E26.74897
G1 X141.686 Y132.314 E26.80354
G1 X141.012 Y132.46 E26.87802
G1 X139.441 Y132.46 E27.04769
G1 X138.406 Y132.447 E27.15948
G1 X137.749 Y132.279 E27.23271
G1 X137.285 Y132.078 E27.28733
G1 X136.48 Y131.472 E27.39615
G1 X136.159 Y131.081 E27.45078
G1 X135.72 Y130.174 E27.55961
G1 X135.577 Y129.513 E27.63265
G1 X135.569 Y126.692 E27.93732
G1 X135.536 Y123.252 E28.30886
G1 X135.54 Y122.414 E28.39936
G1 X135.615 Y121.561 E28.49184
G1 X135.767 Y120.096 E28.65091
G1 X135.969 Y117.39 E28.94397
G1 X136.1 Y114.59 E29.2467
G1 X136.149 Y111.912 E29.53597
G1 X136.122 Y109.166 E29.83256
G1 X136.016 Y106.416 E30.12978
G1 X135.835 Y103.699 E30.42386
G1 X135.592 Y101.198 E30.69524
G1 X135.53 Y100.412 E30.78039
G1 X135.528 Y94.404 E31.42926
G1 X135.541 Y93.372 E31.54072
G1 X135.709 Y92.715 E31.61396
G1 X135.91 Y92.251 E31.66857
G10
;MESH:Waldron3dCar.stl
G0 F9000 X138.033 Y94.155
G0 X138.928 Y93.94
;TYPE:WALL-OUTER
G11
G1 F1800 X138.929 Y100.25 E32.4182
G1 X140.62 Y100.25 E32.61909
G1 X140.619 Y93.94 E33.36872
G1 X138.928 Y93.94 E33.56961
G0 F9000 X138.928 Y94.14
G0 X139.328 Y94.34
;TYPE:WALL-INNER
G1 F1800 X139.329 Y99.85 E34.13494
G1 X140.22 Y99.85 E34.22635
G1 X140.219 Y94.34 E34.79168
G1 X139.328 Y94.34 E34.8831
G0 F9000 X139.774 Y94.785
;TYPE:SKIN
G1 F1308.7 X139.774 Y99.405 E35.45049
G10
G0 F9000 X139.774 Y99.75
G0 X139.475 Y101.146
G0 X139.475 Y121.854
G0 X138.975 Y127.168
;TYPE:WALL-OUTER
G11
G1 F1800 X138.975 Y129.06 E35.67526
G1 X140.574 Y129.06 E35.86522
G1 X140.573 Y127.421 E36.05993
G1 X140.616 Y122.751 E36.61475
G1 X138.932 Y122.751 E36.81481
G1 X138.975 Y127.168 E37.33958
G0 F9000 X138.975 Y127.368
G0 X139.375 Y127.164
;TYPE:WALL-INNER
G1 F1800 X139.375 Y128.66 E37.49307
G1 X140.174 Y128.66 E37.57504
G1 X140.173 Y127.417 E37.70258
G1 X140.212 Y123.151 E38.14029
G1 X139.336 Y123.151 E38.23016
G1 X139.375 Y127.164 E38.64192
G0 F9000 X139.475 Y127.163
G0 X139.547 Y128.488
G0 X139.774 Y128.261
;TYPE:SKIN
G1 F1556.8 X139.774 Y125.923 E38.88803
G1 F1439.6 X139.774 Y123.585 E39.15196
G10
;MESH:NONMESH
G0 F600 X139.774 Y123.585 Z0.42
G0 F9000 X140.107 Y123.588
G0 X139.147 Y122.964
G0 X138.038 Y122.975
G0 X87.409 Y93.86
;TIME_ELAPSED:17.920035
;LAYER:1
M106 S255
;TYPE:WALL-OUTER
;BRIDGE
;MESH:Waldron3dCar.stl
G11
G1 F1800 X87.409 Y99.143 E39.46894
;TYPE:WALL-OUTER
G1 F2100 X87.41 Y100.33 E39.54016
G1 X89.785 Y100.33 E39.68266
;TYPE:WALL-OUTER
;BRIDGE
G1 F1800 X89.784 Y93.86 E40.07086
;TYPE:WALL-OUTER
G1 F2100 X87.409 Y93.86 E40.21336
G0 F9000 X87.409 Y94.06
G0 X87.809 Y94.26
;TYPE:WALL-INNER
;BRIDGE
G1 F1800 X87.809 Y99.143 E40.50634
;TYPE:WALL-INNER
G1 F2400 X87.81 Y99.93 E40.55356
G1 X89.385 Y99.93 E40.64806
;TYPE:WALL-INNER
;BRIDGE
G1 F1800 X89.384 Y94.26 E40.98826
;TYPE:WALL-INNER
G1 F2400 X87.809 Y94.26 E41.08276
G0 F9000 X88.009 Y94.46
;TYPE:SKIN
G1 F1800 X88.01 Y99.73 E41.38315
G1 X89.185 Y99.73 E41.45012
G1 X89.184 Y94.46 E41.75051
G1 X88.009 Y94.46 E41.81749
G0 F9000 X88.821 Y94.659
;TYPE:SKIN
;BRIDGE
G1 F1800 X88.821 Y99.529 E42.09508
G0 F9000 X88.322 Y99.529
G1 F1800 X88.322 Y94.659 E42.37267
G1 X88.322 Y94.559
G10
G0 F9000 X88.322 Y94.36
G0 X87.679 Y100.11
G0 X87.679 Y101.226
G0 X87.679 Y121.774
G0 X87.409 Y122.67
;TYPE:WALL-OUTER
;BRIDGE
G11
G1 F1800 X87.409 Y127.952 E42.68959
;TYPE:WALL-OUTER
G1 F2100 X87.41 Y129.14 E42.76087
G1 X89.785 Y129.14 E42.90337
;TYPE:WALL-OUTER
;BRIDGE
G1 F1800 X89.785 Y122.67 E43.29157
;TYPE:WALL-OUTER
G1 F2100 X87.409 Y122.67 E43.43413
G0 F9000 X87.409 Y122.87
G0 X87.809 Y123.07
;TYPE:WALL-INNER
;BRIDGE
G1 F1800 X87.809 Y127.952 E43.72705
;TYPE:WALL-INNER
G1 F2400 X87.81 Y128.74 E43.77433
G1 X89.385 Y128.74 E43.86883
;TYPE:WALL-INNER
;BRIDGE
G1 F1800 X89.385 Y123.07 E44.20903
;TYPE:WALL-INNER
G1 F2400 X87.809 Y123.07 E44.30359
G0 F9000 X88.009 Y123.27
;TYPE:SKIN
G1 F1800 X88.01 Y128.54 E44.60398
G1 X89.185 Y128.54 E44.67095
G1 X89.185 Y123.27 E44.97134
G1 X88.009 Y123.27 E45.03838
G0 F9000 X87.939 Y123.2
G0 X87.982 Y128.568
G0 X88.323 Y128.34
;TYPE:SKIN
;BRIDGE
G1 F1800 X88.323 Y123.47 E45.31597
G0 F9000 X88.822 Y123.47
G1 F1800 X88.822 Y128.34 E45.59356
G1 X88.822 Y128.44
G10
G0 F9000 X88.822 Y128.64
G0 X89.565 Y127.33
G0 X90.681 Y127.33
G0 X137.307 Y127.303
G0 X138.415 Y127.303
G0 X140.633 Y127.33
G11
G0 X141.334 Y127.33
;TYPE:WALL-OUTER
G1 F2100 X141.346 Y127.308 E45.59506
;TYPE:WALL-OUTER
;BRIDGE
G1 F1800 X141.364 Y124.487 E45.76432
;TYPE:WALL-OUTER
G1 F2100 X141.364 Y122.67 E45.87334
G1 X140.617 Y122.67 E45.91816
G1 X138.93 Y122.67 E46.01938
G1 X138.185 Y122.67 E46.06408
;TYPE:WALL-OUTER
;BRIDGE
G1 F1800 X138.203 Y125.519 E46.23503
;TYPE:WALL-OUTER
G1 F2100 X138.205 Y127.314 E46.34273
G1 X138.213 Y127.333 E46.34396
G1 X138.215 Y129.14 E46.45238
G1 X138.975 Y129.14 E46.49798
G1 X140.574 Y129.14 E46.59392
G1 X141.334 Y129.14 E46.63952
G1 X141.334 Y127.33 E46.74812
G0 F9000 X141.346 Y127.308
G0 X141.347 Y127.133
G0 X140.937 Y127.279
;TYPE:WALL-INNER
G1 F2400 X140.946 Y127.263 E46.74922
;TYPE:WALL-INNER
;BRIDGE
G1 F1800 X140.964 Y124.485 E46.91591
;TYPE:WALL-INNER
G1 F2400 X140.964 Y123.07 E47.00081
G1 X140.614 Y123.07 E47.02181
G1 X138.934 Y123.07 E47.12261
G1 X138.587 Y123.07 E47.14343
;TYPE:WALL-INNER
;BRIDGE
G1 F1800 X138.603 Y125.516 E47.29019
;TYPE:WALL-INNER
G1 F2400 X138.605 Y127.274 E47.39567
G1 X138.611 Y127.289 E47.39664
G1 X138.615 Y128.74 E47.4837
G1 X138.975 Y128.74 E47.5053
G1 X140.574 Y128.74 E47.60124
G1 X140.934 Y128.74 E47.62284
G1 X140.937 Y127.279 E47.7105
G0 F9000 X140.558 Y127.238
;TYPE:SKIN
G1 F1800 X140.566 Y127.213 E47.712
G1 X140.583 Y123.45 E47.92649
G1 X138.969 Y123.45 E48.01849
G1 X138.994 Y128.36 E48.29836
G1 X140.553 Y128.36 E48.38723
G1 X140.558 Y127.238 E48.45118
G0 F9000 X139.974 Y128.16
G1 F1800 X140.355 Y127.779 E48.48189
G0 F9000 X140.359 Y127.209
G1 F1800 X139.408 Y128.16 E48.55855
G0 F9000 X139.191 Y127.812
G1 F1800 X140.367 Y126.635 E48.65339
G0 F9000 X140.369 Y126.067
G1 F1800 X139.188 Y127.249 E48.74863
G0 F9000 X139.185 Y126.686
G1 F1800 X140.372 Y125.499 E48.84432
G0 F9000 X140.375 Y124.93
G1 F1800 X139.182 Y126.123 E48.94048
G0 F9000 X139.179 Y125.561
G1 F1800 X140.377 Y124.363 E49.03705
G0 F9000 X140.38 Y123.794
G1 F1800 X139.176 Y124.998 E49.13411
G0 F9000 X139.173 Y124.435
G1 F1800 X139.959 Y123.649 E49.19747
G0 F9000 X139.394 Y123.649
G1 F1800 X139.17 Y123.873 E49.21553
G0 F9000 X139.193 Y123.874
G10
G0 X138.453 Y122.89
G0 X138.453 Y121.774
G0 X138.453 Y101.226
G0 X138.183 Y93.86
;TYPE:WALL-OUTER
;BRIDGE
G11
G1 F1800 X138.183 Y98.74 E49.50833
;TYPE:WALL-OUTER
G1 F2100 X138.184 Y100.33 E49.60373
G1 X138.929 Y100.33 E49.64843
G1 X140.62 Y100.33 E49.74989
G1 X141.365 Y100.33 E49.79459
;TYPE:WALL-OUTER
;BRIDGE
G1 F1800 X141.364 Y93.86 E50.18279
;TYPE:WALL-OUTER
G1 F2100 X140.619 Y93.86 E50.22749
G1 X138.928 Y93.86 E50.32895
G1 X138.183 Y93.86 E50.37365
G0 F9000 X138.183 Y94.06
G0 X138.583 Y94.26
;TYPE:WALL-INNER
;BRIDGE
G1 F1800 X138.583 Y98.74 E50.64245
;TYPE:WALL-INNER
G1 F2400 X138.584 Y99.93 E50.71385
G1 X138.929 Y99.93 E50.73455
G1 X140.62 Y99.93 E50.83601
G1 X140.965 Y99.93 E50.85671
;TYPE:WALL-INNER
;BRIDGE
G1 F1800 X140.964 Y94.26 E51.19691
;TYPE:WALL-INNER
G1 F2400 X140.619 Y94.26 E51.21761
G1 X138.928 Y94.26 E51.31907
G1 X138.583 Y94.26 E51.33977
G0 F9000 X138.963 Y94.64
;TYPE:SKIN
G1 F1800 X138.964 Y99.55 E51.61964
G1 X140.585 Y99.55 E51.71203
G1 X140.584 Y94.64 E51.9919
G1 X138.963 Y94.64 E52.0843
G0 F9000 X139.162 Y95.03
G1 F1800 X139.353 Y94.839 E52.0997
G0 F9000 X139.919 Y94.839
G1 F1800 X139.162 Y95.596 E52.16072
G0 F9000 X139.162 Y96.162
G1 F1800 X140.383 Y94.941 E52.25914
G0 F9000 X140.383 Y95.507
G1 F1800 X139.162 Y96.727 E52.35753
G0 F9000 X139.162 Y97.293
G1 F1800 X140.383 Y96.073 E52.45591
G0 F9000 X140.383 Y96.638
G1 F1800 X139.162 Y97.859 E52.55434
G0 F9000 X139.162 Y98.425
G1 F1800 X140.384 Y97.203 E52.65284
G0 F9000 X140.384 Y97.769
G1 F1800 X139.162 Y98.99 E52.75131
G0 F9000 X139.369 Y99.349
G1 F1800 X140.384 Y98.335 E52.83309
G0 F9000 X140.384 Y98.9
G1 F1800 X139.935 Y99.349 E52.86928
G0 F9000 X139.935 Y99.33
G10
;MESH:NONMESH
G0 F600 X139.935 Y99.33 Z0.57
G0 F9000 X138.384 Y94.122
G0 X137.288 Y94.123
G0 X90.68 Y94.129
G0 X86.967 Y93.86
;TIME_ELAPSED:29.461285
;LAYER:2
;TYPE:WALL-OUTER
;BRIDGE
;MESH:Waldron3dCar.stl
G11
G1 F1800 X86.967 Y100.33 E53.25748
;TYPE:WALL-OUTER
G1 F2400 X87.41 Y100.33 E53.28406
G1 X89.785 Y100.33 E53.42656
G1 X90.228 Y100.33 E53.45314
;TYPE:WALL-OUTER
;BRIDGE
G1 F1800 X90.227 Y93.86 E53.84134
;TYPE:WALL-OUTER
G1 F2400 X89.784 Y93.86 E53.86792
G1 X87.409 Y93.86 E54.01042
G1 X86.967 Y93.86 E54.03694
G0 F9000 X86.967 Y94.06
G0 X87.367 Y94.26
;TYPE:WALL-INNER
;BRIDGE
G1 F1800 X87.367 Y99.93 E54.37714
;TYPE:WALL-INNER
G1 F3000 X87.41 Y99.93 E54.37972
G1 X89.785 Y99.93 E54.52222
G1 X89.828 Y99.93 E54.5248
;TYPE:WALL-INNER
;BRIDGE
G1 F1800 X89.827 Y94.26 E54.865
;TYPE:WALL-INNER
G1 F3000 X89.784 Y94.26 E54.86758
G1 X87.409 Y94.26 E55.01008
G1 X87.367 Y94.26 E55.0126
G0 F9000 X87.747 Y94.64
;TYPE:SKIN
G1 F1800 X87.747 Y99.55 E55.29247
G1 X89.448 Y99.55 E55.38943
G1 X89.447 Y94.64 E55.6693
G1 X87.747 Y94.64 E55.7662
G0 F9000 X89.247 Y94.904
G1 F1800 X89.182 Y94.839 E55.77144
G0 F9000 X88.616 Y94.839
G1 F1800 X89.247 Y95.47 E55.8223
G0 F9000 X89.247 Y96.035
G1 F1800 X88.051 Y94.839 E55.91871
G0 F9000 X87.946 Y95.3
G1 F1800 X89.247 Y96.601 E56.02359
G0 F9000 X89.247 Y97.167
G1 F1800 X87.946 Y95.866 E56.12846
G0 F9000 X87.946 Y96.431
G1 F1800 X89.247 Y97.732 E56.23333
G0 F9000 X89.247 Y98.298
G1 F1800 X87.946 Y96.997 E56.33821
G0 F9000 X87.946 Y97.563
G1 F1800 X89.247 Y98.864 E56.44308
G0 F9000 X89.166 Y99.349
G1 F1800 X87.946 Y98.128 E56.54147
G0 F9000 X87.946 Y98.694
G1 F1800 X88.601 Y99.349 E56.59427
G0 F9000 X88.035 Y99.349
G1 F1800 X87.946 Y99.26 E56.60144
G0 F9000 X87.967 Y99.26
G10
G0 X87.237 Y100.11
G0 X87.237 Y101.226
G0 X87.237 Y121.774
G0 X86.968 Y122.67
;TYPE:WALL-OUTER
;BRIDGE
G11
G1 F1800 X86.968 Y129.14 E56.98964
;TYPE:WALL-OUTER
G1 F2400 X87.41 Y129.14 E57.01616
G1 X89.785 Y129.14 E57.15866
G1 X90.228 Y129.14 E57.18524
;TYPE:WALL-OUTER
;BRIDGE
G1 F1800 X90.228 Y122.67 E57.57344
;TYPE:WALL-OUTER
G1 F2400 X89.785 Y122.67 E57.60002
G1 X87.409 Y122.67 E57.74258
G1 X86.968 Y122.67 E57.76904
