;FLAVOR:UltiGCode
;TIME:5719
;MATERIAL:11932
;MATERIAL2:0
;NOZZLE_DIAMETER:0.4
;MINX:67.77
;MINY:84.86
;MINZ:0.27
;MAXX:153.184
;MAXY:138.14
;MAXZ:18.87
;Generated with Cura_SteamEngine 5.2.2
M82 ;absolute extrusion mode
G0 F3000 Y50 ;avoid prime blob
G92 E0
G92 E0
G10
;LAYER_COUNT:125
;LAYER:0
M107
G0 F9000 X70.792 Y89.494 Z0.27
;TYPE:SKIRT
G11
G1 F1800 X71.44 Y89.043 E0.08527
G1 X72.131 Y88.659 E0.17064
G1 X72.856 Y88.347 E0.25589
G1 X73.609 Y88.11 E0.34114
G1 X74.383 Y87.951 E0.42648
G1 X75.265 Y87.86 E0.52224
G1 X78.727 Y87.86 E0.89614
G1 X79.149 Y87.497 E0.95626
G1 X79.796 Y87.045 E1.04149
G1 X80.486 Y86.661 E1.12678
G1 X81.212 Y86.349 E1.21212
G1 X81.965 Y86.112 E1.29738
G1 X82.232 Y86.057 E1.32682
G1 X82.943 Y85.659 E1.41482
G1 X83.668 Y85.347 E1.50006
G1 X84.421 Y85.11 E1.58532
G1 X85.195 Y84.951 E1.67065
G1 X86.077 Y84.86 E1.76642
G1 X90.81 Y84.86 E2.27758
G1 X91.599 Y84.9 E2.3629
G1 X92.379 Y85.019 E2.44812
G1 X93.144 Y85.217 E2.53346
G1 X93.884 Y85.491 E2.61868
G1 X94.593 Y85.839 E2.70398
G1 X95.264 Y86.257 E2.78936
G1 X95.888 Y86.74 E2.87458
G1 X96.461 Y87.283 E2.95984
G1 X96.957 Y87.86 E3.04201
G1 X130.729 Y87.86 E6.68939
G1 X131.518 Y87.9 E6.77471
G1 X132.298 Y88.019 E6.85993
G1 X133.172 Y88.245 E6.95742
G1 X133.95 Y87.575 E7.06831
G1 X134.598 Y87.124 E7.15358
G1 X135.288 Y86.74 E7.23886
G1 X136.014 Y86.428 E7.3242
G1 X136.767 Y86.191 E7.40946
G1 X137.541 Y86.031 E7.49482
G1 X138.423 Y85.94 E7.59058
G1 X140.819 Y85.94 E7.84935
G1 X141.608 Y85.98 E7.93467
G1 X142.388 Y86.099 E8.01988
G1 X143.153 Y86.297 E8.10522
G1 X143.893 Y86.571 E8.19045
G1 X144.602 Y86.919 E8.27575
G1 X145.273 Y87.337 E8.36112
G1 X145.897 Y87.82 E8.44635
G1 X146.47 Y88.363 E8.5316
G1 X146.985 Y88.962 E8.61692
G1 X147.436 Y89.61 E8.70218
G1 X147.82 Y90.301 E8.78756
G1 X148.132 Y91.026 E8.8728
G1 X148.369 Y91.779 E8.95806
G1 X148.528 Y92.553 E9.0434
G1 X148.619 Y93.434 E9.13905
G1 X148.62 Y99.925 E9.84008
G1 X149.083 Y100.145 E9.89544
G1 X149.759 Y100.554 E9.98077
G1 X150.389 Y101.029 E10.06599
G1 X150.968 Y101.566 E10.15127
G1 X151.49 Y102.159 E10.23659
G1 X151.949 Y102.801 E10.32183
G1 X152.341 Y103.487 E10.40716
G1 X152.662 Y104.208 E10.4924
G1 X152.908 Y104.959 E10.57774
G1 X153.077 Y105.73 E10.66299
G1 X153.183 Y106.654 E10.76344
G1 X153.184 Y115.976 E11.77021
G1 X153.144 Y116.765 E11.85553
G1 X153.025 Y117.545 E11.94075
G1 X152.827 Y118.31 E12.02609
G1 X152.553 Y119.051 E12.11141
G1 X152.205 Y119.76 E12.19671
G1 X151.788 Y120.43 E12.28194
G1 X151.305 Y121.055 E12.36725
G1 X150.761 Y121.627 E12.4525
G1 X150.162 Y122.142 E12.53782
G1 X149.514 Y122.594 E12.62315
G1 X148.614 Y123.094 E12.73434
G1 X148.573 Y127.495 E13.20967
G1 X148.574 Y129.256 E13.39986
G1 X148.534 Y130.044 E13.48507
G1 X148.415 Y130.825 E13.57039
G1 X148.218 Y131.59 E13.65571
G1 X147.944 Y132.33 E13.74093
G1 X147.597 Y133.04 E13.82628
G1 X147.18 Y133.71 E13.91151
G1 X146.697 Y134.335 E13.99681
G1 X146.154 Y134.908 E14.08207
G1 X145.555 Y135.423 E14.16739
G1 X144.907 Y135.875 E14.25271
G1 X144.217 Y136.259 E14.338
G1 X143.492 Y136.571 E14.42324
G1 X142.739 Y136.808 E14.5085
G1 X141.965 Y136.968 E14.59386
G1 X141.073 Y137.06 E14.6907
G1 X138.775 Y137.06 E14.93889
G1 X137.986 Y137.02 E15.02421
G1 X137.206 Y136.901 E15.10942
G1 X136.441 Y136.703 E15.19476
G1 X135.701 Y136.429 E15.27999
G1 X134.992 Y136.081 E15.36529
G1 X134.321 Y135.663 E15.45067
G1 X133.697 Y135.18 E15.53589
G1 X133.226 Y134.734 E15.60594
G1 X132.805 Y134.871 E15.65376
G1 X132.033 Y135.038 E15.73906
G1 X131.123 Y135.14 E15.83796
G1 X96.95 Y135.14 E19.52864
G1 X96.735 Y135.418 E19.5666
G1 X96.192 Y135.991 E19.65185
G1 X95.593 Y136.506 E19.73717
G1 X94.945 Y136.957 E19.82243
G1 X94.254 Y137.341 E19.90781
G1 X93.529 Y137.653 E19.99305
G1 X92.776 Y137.89 E20.07831
G1 X92.002 Y138.049 E20.16365
G1 X91.12 Y138.14 E20.25941
G1 X86.383 Y138.14 E20.77101
G1 X85.594 Y138.1 E20.85633
G1 X84.814 Y137.981 E20.94154
G1 X84.049 Y137.783 E21.02688
G1 X83.309 Y137.509 E21.11211
G1 X82.6 Y137.161 E21.19741
G1 X81.929 Y136.743 E21.28278
G1 X81.305 Y136.26 E21.36801
G1 X80.732 Y135.717 E21.45326
G1 X80.236 Y135.14 E21.53544
G1 X75.57 Y135.14 E22.03937
G1 X74.781 Y135.1 E22.12469
G1 X74.001 Y134.981 E22.2099
G1 X73.236 Y134.783 E22.29525
G1 X72.496 Y134.509 E22.38047
G1 X71.787 Y134.161 E22.46577
G1 X71.116 Y133.743 E22.55115
G1 X70.492 Y133.26 E22.63637
G1 X69.919 Y132.717 E22.72162
G1 X69.404 Y132.118 E22.80694
G1 X68.953 Y131.47 E22.89221
G1 X68.569 Y130.779 E22.97758
G1 X68.257 Y130.054 E23.06282
G1 X68.02 Y129.301 E23.14808
G1 X67.861 Y128.527 E23.23342
G1 X67.77 Y127.645 E23.32918
G1 X67.77 Y95.66 E26.78356
G1 X67.81 Y94.871 E26.86888
G1 X67.929 Y94.091 E26.9541
G1 X68.127 Y93.326 E27.03944
G1 X68.401 Y92.586 E27.12466
G1 X68.749 Y91.877 E27.20996
G1 X69.167 Y91.206 E27.29534
G1 X69.65 Y90.582 E27.38056
G1 X70.193 Y90.009 E27.46582
G1 X70.792 Y89.494 E27.55113
G0 F9000 X71.181 Y89.702
G1 F1800 X71.823 Y89.279 E27.63417
G1 X72.506 Y88.924 E27.7173
G1 X73.221 Y88.643 E27.80027
G1 X73.963 Y88.437 E27.88344
G1 X74.721 Y88.309 E27.96646
G1 X75.57 Y88.26 E28.0583
G1 X78.861 Y88.26 E28.41373
G1 X79.538 Y87.705 E28.50828
G1 X80.179 Y87.281 E28.59128
G1 X80.862 Y86.926 E28.67441
G1 X81.577 Y86.644 E28.75742
G1 X82.45 Y86.401 E28.85529
G1 X82.635 Y86.279 E28.87922
G1 X83.318 Y85.924 E28.96236
G1 X84.033 Y85.643 E29.04533
G1 X84.775 Y85.437 E29.12849
G1 X85.533 Y85.309 E29.21152
G1 X86.382 Y85.26 E29.30336
G1 X90.81 Y85.26 E29.78158
G1 X91.578 Y85.3 E29.86464
G1 X92.338 Y85.419 E29.94772
G1 X93.081 Y85.617 E30.03076
G1 X93.8 Y85.891 E30.11386
G1 X94.486 Y86.238 E30.19689
G1 X95.133 Y86.654 E30.27996
G1 X95.733 Y87.135 E30.36302
G1 X96.28 Y87.676 E30.44611
G1 X96.765 Y88.26 E30.52809
G1 X130.729 Y88.26 E34.1962
G1 X131.497 Y88.3 E34.27926
G1 X132.257 Y88.419 E34.36234
G1 X133.318 Y88.702 E34.48093
G1 X133.744 Y88.271 E34.54638
G1 X134.339 Y87.783 E34.62949
G1 X134.981 Y87.359 E34.71258
G1 X135.664 Y87.005 E34.79567
G1 X136.379 Y86.723 E34.87868
G1 X137.12 Y86.517 E34.96174
G1 X137.879 Y86.389 E35.04487
G1 X138.729 Y86.34 E35.13682
G1 X140.819 Y86.34 E35.36254
G1 X141.587 Y86.38 E35.4456
G1 X142.347 Y86.499 E35.52868
G1 X143.09 Y86.697 E35.61172
G1 X143.809 Y86.971 E35.69482
G1 X144.495 Y87.318 E35.77785
G1 X145.142 Y87.734 E35.86092
G1 X145.742 Y88.215 E35.94397
G1 X146.289 Y88.756 E36.02706
G1 X146.777 Y89.351 E36.11017
G1 X147.2 Y89.993 E36.19321
G1 X147.555 Y90.676 E36.27634
G1 X147.836 Y91.391 E36.35931
G1 X148.042 Y92.133 E36.44247
G1 X148.17 Y92.891 E36.5255
G1 X148.219 Y93.739 E36.61723
G1 X148.22 Y100.162 E37.31092
G1 X149.086 Y100.604 E37.41592
G1 X149.731 Y101.023 E37.49899
G1 X150.329 Y101.506 E37.58201
G1 X150.873 Y102.05 E37.6651
G1 X151.359 Y102.646 E37.74815
G1 X151.779 Y103.29 E37.83119
G1 X152.131 Y103.974 E37.91427
G1 X152.41 Y104.691 E37.99736
G1 X152.613 Y105.433 E38.08044
G1 X152.738 Y106.192 E38.16352
G1 X152.783 Y107.01 E38.252
G1 X152.784 Y115.976 E39.22033
G1 X152.744 Y116.744 E39.30338
G1 X152.625 Y117.504 E39.38646
G1 X152.427 Y118.247 E39.46951
G1 X152.153 Y118.966 E39.55261
G1 X151.807 Y119.653 E39.63568
G1 X151.39 Y120.3 E39.71881
G1 X150.909 Y120.9 E39.80186
G1 X150.368 Y121.447 E39.88495
G1 X149.774 Y121.934 E39.96791
G1 X149.132 Y122.358 E40.051
G1 X148.216 Y122.833 E40.16244
G1 X148.173 Y127.491 E40.66553
G1 X148.174 Y129.256 E40.85615
G1 X148.134 Y130.024 E40.9392
G1 X148.015 Y130.784 E41.02228
G1 X147.818 Y131.527 E41.1053
G1 X147.545 Y132.246 E41.18836
G1 X147.198 Y132.933 E41.27148
G1 X146.782 Y133.58 E41.35456
G1 X146.301 Y134.18 E41.43761
G1 X145.761 Y134.727 E41.52062
G1 X145.166 Y135.216 E41.6038
G1 X144.524 Y135.639 E41.68683
G1 X143.842 Y135.994 E41.76987
G1 X143.126 Y136.276 E41.85298
G1 X142.385 Y136.482 E41.93604
G1 X141.627 Y136.611 E42.01908
G1 X140.774 Y136.66 E42.11136
G1 X138.775 Y136.66 E42.32725
G1 X138.007 Y136.62 E42.41031
G1 X137.247 Y136.501 E42.49339
G1 X136.504 Y136.303 E42.57643
G1 X135.785 Y136.029 E42.65953
G1 X135.099 Y135.682 E42.74256
G1 X134.452 Y135.266 E42.82563
G1 X133.852 Y134.785 E42.90868
G1 X133.35 Y134.288 E42.98498
G1 X132.449 Y134.548 E43.08625
G1 X131.692 Y134.683 E43.1693
G1 X130.774 Y134.74 E43.26864
G1 X96.758 Y134.74 E46.94236
G1 X96.34 Y135.263 E47.01467
G1 X95.799 Y135.81 E47.09776
G1 X95.204 Y136.298 E47.18087
G1 X94.562 Y136.721 E47.2639
G1 X93.879 Y137.076 E47.34704
G1 X93.164 Y137.357 E47.43
G1 X92.422 Y137.563 E47.51317
G1 X91.664 Y137.691 E47.59619
G1 X90.815 Y137.74 E47.68804
G1 X86.383 Y137.74 E48.1667
G1 X85.615 Y137.7 E48.24975
G1 X84.855 Y137.581 E48.33283
G1 X84.112 Y137.383 E48.41588
G1 X83.393 Y137.109 E48.49898
G1 X82.707 Y136.762 E48.582
G1 X82.06 Y136.346 E48.66508
G1 X81.46 Y135.865 E48.74813
G1 X80.913 Y135.324 E48.83122
G1 X80.434 Y134.74 E48.91279
G1 X75.57 Y134.74 E49.4381
G1 X74.802 Y134.7 E49.52116
G1 X74.042 Y134.581 E49.60424
G1 X73.299 Y134.383 E49.68728
G1 X72.58 Y134.109 E49.77038
G1 X71.894 Y133.762 E49.85341
G1 X71.247 Y133.346 E49.93648
G1 X70.647 Y132.865 E50.01954
G1 X70.1 Y132.324 E50.10262
G1 X69.612 Y131.729 E50.18573
G1 X69.189 Y131.087 E50.26877
G1 X68.834 Y130.404 E50.3519
G1 X68.553 Y129.689 E50.43487
G1 X68.347 Y128.947 E50.51804
G1 X68.219 Y128.189 E50.60106
G1 X68.17 Y127.34 E50.6929
G1 X68.17 Y95.66 E54.11434
G1 X68.21 Y94.892 E54.1974
G1 X68.329 Y94.132 E54.28048
G1 X68.527 Y93.389 E54.36352
G1 X68.801 Y92.67 E54.44662
G1 X69.148 Y91.984 E54.52965
G1 X69.564 Y91.337 E54.61272
G1 X70.045 Y90.737 E54.69578
G1 X70.586 Y90.19 E54.77887
G1 X71.181 Y89.702 E54.86197
G0 F9000 X71.568 Y89.917
G1 F1800 X72.204 Y89.522 E54.94283
G1 X72.878 Y89.198 E55.0236
G1 X73.583 Y88.948 E55.10438
G1 X74.311 Y88.774 E55.18522
G1 X75.201 Y88.66 E55.28213
G1 X79.045 Y88.66 E55.69728
G1 X79.335 Y88.379 E55.74089
G1 X79.925 Y87.919 E55.82169
G1 X80.56 Y87.524 E55.90245
G1 X81.234 Y87.2 E55.98322
G1 X81.939 Y86.949 E56.06404
G1 X82.572 Y86.798 E56.13432
G1 X83.016 Y86.522 E56.19079
G1 X83.69 Y86.198 E56.27155
G1 X84.395 Y85.948 E56.35234
G1 X85.123 Y85.774 E56.43318
G1 X86.013 Y85.66 E56.53008
G1 X90.81 Y85.66 E57.04816
G1 X91.557 Y85.7 E57.12895
G1 X92.295 Y85.819 E57.20968
G1 X93.017 Y86.017 E57.29054
G1 X93.713 Y86.29 E57.37128
G1 X94.376 Y86.637 E57.4521
G1 X94.999 Y87.052 E57.53294
G1 X95.573 Y87.531 E57.61369
G1 X96.094 Y88.068 E57.69449
G1 X96.604 Y88.66 E57.77888
G1 X130.729 Y88.66 E61.46438
G1 X131.476 Y88.7 E61.54517
G1 X132.214 Y88.819 E61.62591
G1 X132.936 Y89.017 E61.70676
G1 X133.379 Y89.19 E61.75812
G1 X134.136 Y88.457 E61.87193
G1 X134.726 Y87.997 E61.95272
G1 X135.362 Y87.603 E62.03352
G1 X136.036 Y87.279 E62.11429
G1 X136.741 Y87.028 E62.19511
G1 X137.469 Y86.854 E62.27595
G1 X138.359 Y86.74 E62.37286
G1 X140.819 Y86.74 E62.63854
G1 X141.566 Y86.78 E62.71933
G1 X142.304 Y86.899 E62.80006
G1 X143.026 Y87.097 E62.88092
G1 X143.722 Y87.37 E62.96166
G1 X144.385 Y87.717 E63.04248
G1 X145.008 Y88.132 E63.12332
G1 X145.582 Y88.611 E63.20407
G1 X146.103 Y89.148 E63.28487
G1 X146.562 Y89.738 E63.3656
G1 X146.957 Y90.374 E63.44646
G1 X147.281 Y91.048 E63.52723
G1 X147.531 Y91.753 E63.60801
G1 X147.705 Y92.481 E63.68885
G1 X147.819 Y93.371 E63.78576
G1 X147.82 Y100.453 E64.55061
G1 X148.423 Y100.706 E64.62124
G1 X149.079 Y101.066 E64.70205
G1 X149.692 Y101.495 E64.78286
G1 X150.256 Y101.986 E64.86362
G1 X150.765 Y102.535 E64.94447
G1 X151.212 Y103.135 E65.02528
G1 X151.592 Y103.779 E65.10604
G1 X151.902 Y104.46 E65.18684
G1 X152.137 Y105.17 E65.26762
G1 X152.294 Y105.901 E65.34836
G1 X152.383 Y107.01 E65.46852
G1 X152.384 Y115.976 E66.43685
G1 X152.344 Y116.723 E66.51764
G1 X152.225 Y117.462 E66.59848
G1 X152.027 Y118.183 E66.67923
G1 X151.754 Y118.88 E66.76008
G1 X151.408 Y119.543 E66.84084
G1 X150.993 Y120.165 E66.9216
G1 X150.514 Y120.74 E67.00242
G1 X149.976 Y121.26 E67.08323
G1 X149.386 Y121.72 E67.16403
G1 X148.751 Y122.114 E67.24474
G1 X147.815 Y122.563 E67.35686
G1 X147.773 Y127.488 E67.88878
G1 X147.774 Y129.256 E68.07972
G1 X147.734 Y130.003 E68.16051
G1 X147.615 Y130.742 E68.24135
G1 X147.418 Y131.463 E68.32207
G1 X147.145 Y132.16 E68.40292
G1 X146.799 Y132.823 E68.48369
G1 X146.385 Y133.446 E68.56447
G1 X145.906 Y134.021 E68.6453
G1 X145.369 Y134.541 E68.72603
G1 X144.779 Y135.001 E68.80683
G1 X144.143 Y135.396 E68.88768
G1 X143.469 Y135.72 E68.96845
G1 X142.764 Y135.971 E69.04927
G1 X142.037 Y136.145 E69.13
G1 X141.148 Y136.26 E69.22682
G1 X138.775 Y136.26 E69.4831
G1 X138.028 Y136.22 E69.56389
G1 X137.29 Y136.101 E69.64463
G1 X136.568 Y135.903 E69.72548
G1 X135.872 Y135.63 E69.80622
G1 X135.209 Y135.283 E69.88704
G1 X134.586 Y134.868 E69.96789
G1 X134.012 Y134.389 E70.04863
G1 X133.446 Y133.806 E70.13639
G1 X132.823 Y134.033 E70.208
G1 X132.097 Y134.214 E70.2888
G1 X131.356 Y134.316 E70.36959
G1 X130.774 Y134.34 E70.4325
G1 X96.602 Y134.34 E74.12307
G1 X96.423 Y134.529 E74.15119
G1 X95.944 Y135.103 E74.23193
G1 X95.407 Y135.624 E74.31273
G1 X94.817 Y136.083 E74.39347
G1 X94.181 Y136.478 E74.47432
G1 X93.507 Y136.802 E74.55509
G1 X92.802 Y137.052 E74.63587
G1 X92.074 Y137.226 E74.71671
G1 X91.184 Y137.34 E74.81362
G1 X86.383 Y137.34 E75.33213
G1 X85.636 Y137.3 E75.41292
G1 X84.898 Y137.181 E75.49365
G1 X84.176 Y136.983 E75.57451
G1 X83.48 Y136.71 E75.65525
G1 X82.817 Y136.363 E75.73607
G1 X82.194 Y135.948 E75.81691
G1 X81.62 Y135.469 E75.89766
G1 X81.099 Y134.932 E75.97846
G1 X80.639 Y134.34 E76.05943
G1 X75.57 Y134.34 E76.60688
G1 X74.823 Y134.3 E76.68767
G1 X74.085 Y134.181 E76.76841
G1 X73.363 Y133.983 E76.84926
G1 X72.667 Y133.71 E76.93001
G1 X72.004 Y133.363 E77.01082
G1 X71.381 Y132.948 E77.09167
G1 X70.807 Y132.469 E77.17241
G1 X70.286 Y131.932 E77.25322
G1 X69.827 Y131.342 E77.33395
G1 X69.432 Y130.706 E77.41481
G1 X69.108 Y130.032 E77.49557
G1 X68.858 Y129.327 E77.57636
G1 X68.684 Y128.599 E77.6572
G1 X68.57 Y127.709 E77.7541
G1 X68.57 Y95.66 E81.21539
G1 X68.61 Y94.913 E81.29618
G1 X68.729 Y94.175 E81.37692
G1 X68.927 Y93.453 E81.45777
G1 X69.2 Y92.757 E81.53852
G1 X69.547 Y92.094 E81.61934
G1 X69.962 Y91.471 E81.70018
G1 X70.441 Y90.897 E81.78092
G1 X70.978 Y90.376 E81.86173
G1 X71.568 Y89.917 E81.94246
G0 F9000 X71.954 Y90.139
G1 F1800 X72.583 Y89.775 E82.02095
G1 X73.248 Y89.482 E82.09943
G1 X73.941 Y89.264 E82.17789
G1 X74.653 Y89.124 E82.25626
G1 X75.57 Y89.06 E82.35553
G1 X79.198 Y89.06 E82.74736
G1 X79.726 Y88.572 E82.82501
G1 X80.311 Y88.141 E82.90348
G1 X80.939 Y87.776 E82.98193
G1 X81.604 Y87.483 E83.06041
G1 X82.297 Y87.265 E83.13887
G1 X82.678 Y87.19 E83.18081
G1 X83.395 Y86.775 E83.27028
G1 X84.06 Y86.482 E83.34876
G1 X84.753 Y86.264 E83.42722
G1 X85.465 Y86.124 E83.50559
G1 X86.382 Y86.06 E83.60487
G1 X90.81 Y86.06 E84.08309
G1 X91.535 Y86.1 E84.16151
G1 X92.252 Y86.219 E84.24001
G1 X92.951 Y86.417 E84.31847
G1 X93.624 Y86.69 E84.39691
G1 X94.263 Y87.035 E84.47533
G1 X94.86 Y87.449 E84.5538
G1 X95.408 Y87.925 E84.63219
G1 X95.901 Y88.459 E84.71068
G1 X96.439 Y89.06 E84.7978
G1 X130.729 Y89.06 E88.50112
G1 X131.454 Y89.1 E88.57954
G1 X132.171 Y89.219 E88.65803
G1 X132.87 Y89.417 E88.73649
G1 X133.524 Y89.682 E88.8127
G1 X133.994 Y89.143 E88.88994
G1 X134.528 Y88.65 E88.96843
G1 X135.112 Y88.219 E89.04682
G1 X135.741 Y87.855 E89.12531
G1 X136.406 Y87.562 E89.20379
G1 X137.099 Y87.345 E89.28222
G1 X137.811 Y87.204 E89.36061
G1 X138.729 Y87.14 E89.45999
G1 X140.819 Y87.14 E89.68571
G1 X141.544 Y87.18 E89.76413
G1 X142.261 Y87.299 E89.84262
G1 X142.96 Y87.497 E89.92109
G1 X143.633 Y87.77 E89.99952
G1 X144.272 Y88.115 E90.07795
G1 X144.869 Y88.529 E90.15641
G1 X145.417 Y89.005 E90.23481
G1 X145.91 Y89.539 E90.3133
G1 X146.34 Y90.124 E90.39171
G1 X146.704 Y90.753 E90.4702
G1 X146.997 Y91.418 E90.54868
G1 X147.215 Y92.111 E90.62714
G1 X147.355 Y92.823 E90.70551
G1 X147.419 Y93.739 E90.80468
G1 X147.42 Y100.744 E91.56122
G1 X147.777 Y100.86 E91.60176
G1 X148.438 Y101.161 E91.6802
G1 X149.062 Y101.532 E91.7586
G1 X149.642 Y101.969 E91.83703
G1 X150.17 Y102.468 E91.91549
G1 X150.641 Y103.021 E91.99394
G1 X151.047 Y103.623 E92.07236
G1 X151.385 Y104.266 E92.15082
G1 X151.65 Y104.943 E92.22934
G1 X151.84 Y105.644 E92.30777
G1 X151.951 Y106.362 E92.38624
